X: 31843
T: Paudy Scully's
R: slide
M: 12/8
K: Eminor
d2 B BAB g2e f2e|1 d2B c2 B A3 ABc:|2 d2B c2 B A3 A3||
|:faf e2 d faf efe|d2B BAB e3 ede|
faf e2 d faf efe|d2B c2 B A3 A3:|

